X:1
T:La Porte, 10.10.10.10
T:La Porte, 10.10.10.10
T:William Fiske Sherwin, 1881
T:Public Domain Courtesy of the Cyber Hymnal™
C:William Fiske Sherwin, 1881
Z:Public Domain
Z:Courtesy of the Cyber Hymnal™
%%score ( 1 2 ) ( 3 4 )
L:1/8
Q:1/4=115
M:2/2
K:Eb
V:1 treble 
V:2 treble 
V:3 bass 
V:4 bass 
V:1
 [GB]4 [EG]2 [FA]2 | [GB]4 [EG]4 | [DF]2 E2 [CF]2 [B,D]2 | [B,E]6 z2 | [EG]4 [DA]2 [EB]2 | %5
 [Ec]4 [EB]4 | [DA]2 [DF]2 [EG]2 [E=A]2 | [DB]6 z2 | [EB]4 [EG]2 [FA]2 | [GB]4 [EG]4 | %10
 [Ec]2 [Ed]2 [Ee]2 [Ac]2 | [GB]6 z2 | [EG]4 [Ec]2 [EB]2 | [FA]4 [EG]4 | [DF]2 E2 [CF]2 [B,D]2 | %15
 [B,E]6 z2 |] %16
V:2
 x8 | x8 | x2 E2 x4 | x8 | x8 | x8 | x8 | x8 | x8 | x8 | x8 | x8 | x8 | x8 | x2 E2 x4 | x8 |] %16
V:3
 [E,B,]4 [E,B,]2 [E,B,]2 | [E,B,]4 [E,B,]4 | [B,,A,]2 [C,G,]2 [A,,A,]2 [B,,F,]2 | [E,G,]6 z2 | %4
 [E,B,]4 [F,B,]2 [G,B,]2 | A,4 [G,B,]4 | [F,B,]2 [B,,B,]2 [E,B,]2 [C,F,]2 | [B,,F,]6 z2 | %8
 [E,G,]4 [E,B,]2 [E,B,]2 | [E,B,]4 [E,B,]4 | A,2 [A,B,]2 [A,C]2 [A,E]2 | [E,E]6 z2 | %12
 [E,B,]4 [E,A,]2 [E,G,]2 | [D,B,]4 [E,B,]4 | [B,,A,]2 [C,G,]2 [A,,A,]2 [B,,F,]2 | [E,G,]6 z2 |] %16
V:4
 x8 | x8 | x8 | x8 | x8 | A,4 x4 | x8 | x8 | x8 | x8 | A,2 x6 | x8 | x8 | x8 | x8 | x8 |] %16

